X:1
T:Come unto Me
T:Come unto Me
T:George Orbin
T:George Orbin, 1899
T:Public Domain Courtesy of the Cyber Hymnal™
T:Public Domain Courtesy of the Cyber Hymnal™
C:George Orbin
Z:Public Domain
Z:Courtesy of the Cyber Hymnal™
%%score ( 1 2 ) ( 3 4 )
L:1/8
Q:1/4=95
M:4/4
K:G
V:1 treble 
V:2 treble 
V:3 bass 
V:4 bass 
V:1
 [B,D]2 [B,D]>[CE] [B,D]2 [B,G]>[CA] | [DB]2 [DB]>[DA] [EG]2 [CE]2 | [EG]2 [EG]>[EG] [CE]2 D2 | %3
w: 1.~“Hin- der the child- ren,” they|said to the Mas- ter,|“Why should the mo- thers|
w: 2.~Safe in the arms of His|ten- der com- pas- sion,|Play- ful the prat- tlers|
w: 3.~Come now to Je- sus, oh,|thrice hap- py wel- come,|Wel- come to Him who|
w: 4.~Then in the day of His|se- cond ap- pear- ing,|When from His pre- sence|
 [DG]2 [DG]>[DB] [DA]4 | [B,D]2 [B,D]>[CE] [B,D]2 [B,G]>[CA] | [DB]2 [DB]>[DA] [EG]2 [CE]2 | %6
w: bring them to Thee?”|“Hin- der them not,” was the|an- swer of Je- sus,|
w: sat on His knee,|Wait- ing to get His di-|vine ben- e- dic- tion,|
w: died on the tree;|Tho’ He is reign- ing in|man- sions of glo- ry,|
w: mount- ains shall flee,|Sweet- er than ev- er will|be the glad wel- come,|
 [EG]2 [EG]>[EG] [CE][B,D] [B,D]2 | [DG]2 [DA]>[DF] [DG]4 ||"^Refrain" [Gd]2 [Gd]>[Gd] [Gd]4 | %9
w: “Let all the lit- tle ones|come un- to Me.”||
w: Hap- py to hear Him say,|“Come un- to Me.”|“Come un- to Me,|
w: Yet does His Spir- it say,|“Come un- to Me.”||
w: As thou shalt hear Him say,|“Come un- to Me.”||
 [Ge]2 [Ge]>[Ge] [Gd]4 | [Fc]<[Fc] [Fc]>[Fc] [GB]<[GB] [Gd]>[GB] | [FA]2 [Fd]>[Fc] [GB]4 | %12
w: |||
w: come un- to Me,|Suf- fer all the lit- tle ones to|come un- to Me;|
w: |||
w: |||
 [GB][GB][GB][Gc] [GB]3 [DA] | [EG][EG][EG][EA] [EG]3 [CE] | [B,D][B,D][B,D][DB] [DA]2 [DB]>[CA] | %15
w: |||
w: Turn them not a- way, but|bring them in to- day, And|suf- fer them to come un- to|
w: |||
w: |||
 [B,G]6 |] %16
w: |
w: Me.”|
w: |
w: |
V:2
 x8 | x8 | x6 D2 | x8 | x8 | x8 | x8 | x8 || x8 | x8 | x8 | x8 | x8 | x8 | x8 | x6 |] %16
V:3
 [G,,G,]2 [G,,G,]>[G,,G,] [G,,G,]2 [G,,G,]>[G,,G,] | [G,,G,]2 [G,,G,]>[B,,G,] [C,G,]2 [C,G,]2 | %2
 [C,G,]2 [C,G,]>[C,G,] [C,G,]2 [C,G,]2 | [A,,B,]2 [A,,B,]>[G,,G,] [D,F,]4 | %4
 [G,,G,]2 [G,,G,]>[G,,G,] [G,,G,]2 [G,,G,]>[G,,G,] | [G,,G,]2 [G,,G,]>[B,,G,] [C,G,]2 [C,G,]2 | %6
 [C,G,]2 [C,G,]>[C,G,] [C,G,][G,,G,] [G,,G,]2 | [D,B,]2 [D,C]>[D,C] [G,,B,]4 || %8
 [G,B,]2 [G,B,]>[G,B,] [G,B,]4 | C2 [E,C]>[F,C] [G,B,]4 | %10
 [D,D]<[D,D] [D,D]>[D,D] [G,D]<[G,D] [G,B,]>[G,D] | [D,D]2 [D,A,]>[D,D] [G,D]4 | %12
 [G,D][G,D][G,D][G,E] [G,D]3 [G,B,] | [C,C][C,C][C,C][C,C] [C,C]3 [C,G,] | %14
 [D,G,][D,G,][D,G,][D,G,] [D,F,]2 [D,G,]>[D,F,] | [G,,G,]6 |] %16
V:4
 x8 | x8 | x8 | x8 | x8 | x8 | x8 | x8 || x8 | (C,D,) x6 | x8 | x8 | x8 | x8 | x8 | x6 |] %16

